svg/shield.svg

<?xml version="1.0" encoding="UTF-8"?>
<svg xmlns="http://www.w3.org/2000/svg" xmlns:xlink="http://www.w3.org/1999/xlink" width="32" height="32" viewBox="0 0 32 32">
<path fill-rule="nonzero" fill="rgb(0%, 0%, 0%)" fill-opacity="1" d="M 16.011719 31.875 L 15.734375 31.746094 C 15.59375 31.683594 1.921875 25.140625 1.921875 5.648438 L 1.921875 5.132812 L 2.421875 5.023438 C 7.160156 3.984375 9.957031 2.511719 12 1.433594 C 13.585938 0.601562 14.734375 0 16 0 C 17.265625 0 18.414062 0.601562 20 1.433594 C 22.042969 2.511719 24.839844 3.980469 29.578125 5.023438 L 30.078125 5.132812 L 30.078125 5.648438 C 30.078125 24.496094 16.425781 31.664062 16.289062 31.734375 Z M 16.011719 31.875 "/>
</svg>

<svg role="img" viewBox="0 0 32 32" height="32" width="32" xmlns="http://www.w3.org/2000/svg"><path d="m16.012 31.875-.278-.129c-.14-.062-13.812-6.605-13.812-26.098v-.515l.5-.11C7.16 3.984 9.957 2.512 12 1.433 13.586.603 14.734 0 16 0s2.414.602 4 1.434c2.043 1.078 4.84 2.546 9.578 3.59l.5.109v.515c0 18.848-13.652 26.016-13.789 26.086Zm0 0"/></svg>
